X: 47
T: Fang che yao
L: 1/16
K: Bb
d d d2 A2 d dd4 [I:setbarnb 1]| 
g2 a> d' b< a g2d4 | 
g2 g2 g a d' b a/ c'/ b/ a/ g2 | 
g> a g< d- d2 g2 g2g4d2 d2 A2 d2d4 | 
g2 a> d' b< a g2d4 | 
g2 g2 g a d b a/ c'/ b/ a/ g2 | 
g> a g< d- d2 g2g4 | 
g c'c'4c'2 c' a3 | 
d'> c' d'2< g'2 d' d'd'4 | 
c' d' d'2 d'2 a2 c'< a a3/ g/ | 
g> a d'< a- a2 g gg4 | 
d2 d2 A2 d2d4 | 
g2 a> d' b< a g2d4 | 
g2 g2 g a d' b a/ c'/ b/ a/ g2 | 
g> a g< d- d2 g2g4 | 
d' f' f'2< f'2 f' d' d' g'3 | 
d'>- d' c'< d' b< a g gd4 | 
g2 g2 g a d'2 b a g2 | 
g> a d'< g b< a g gg4 | 
d d d2 A2 d dd4 | 
g2 a> d' b< a g2d4 | 
g2 g2 g a d' b a/ c'/ b/ a/ g2 | 
g> a g< d- d2 g2 g2g4d2 d2 A2 d2d4 | 
g2 a> d' b< a g2d4 | 
g2 g2 g a d b a/ c'/ b/ a/ g2 | 
g> a g< d- d2 g2g4 |]

@@@ Tune index: 8715
